X:1
T:Two Babes
T:French E. Oliver, 1909
T:Two Babes
T:Public Domain
T:Public Domain
T:Public Domain
C:French E. Oliver, 1909
Z:Public Domain
%%score ( 1 2 ) ( 3 4 )
L:1/8
M:6/8
K:Ab
V:1 treble 
V:2 treble 
V:3 bass 
V:4 bass 
V:1
 E | C2 E C2 _E/E/ | F2 F [_FA]2 A/A/ | d2 d (GG)c | [CA]3- [CA]2 E | ([_CE][E_c])[EA] E2 E/E/ | %6
w: 1.~Two|babes were born in the|town, On the ve- ry|day, They laughed * and|their * mo-|thers’ * arms, In the ve-|
w: 2.~Two|child- ren played in the|town, And the child- ren|fair, But one * had|shed * smooth|and * round, The o- ther|
w: 3.~Two|mai- dens wrought in the|town, And one was wed-|loved, The other * one|the * cur-|tains’ * part, The world where|
w: 4.~Two|women lay dead in the|town, And o- ne had|care; The o- * ther|to * die|a- * lone, On her pal-|
w: 5.~If|Christ who died for the|poor, In won- dro- us|love, Took bo- * th|ters * in|His * arms, And car- ried|
 _F2 F _C2 C/D/ | E2 _F (D=C)B, | A,3- A,2 [_CE] | (EF)[DE] (EF)[DE] | E A2 [CE]2 F | %11
w: self- same way; And both|and in- no- * cent,|ing * flakes|of * snow; But * one|lived in a ter-|
w: tan- gled hair. The child-|grew up a- * pace,|ther * child-|ren * grow; But * one|lived in a ter-|
w: sis- ter moved; And one~was|ing hap- py * bride;|knew * care|and * woe; For * one|lived in a ter-|
w: so~thin and bare; The one|to mourn her * loss,|few * tears|would * flow; For * o-|lived in a ter-|
w: home a- bove; Then all|ence van- ished * quite,|en * none|would * know Which * one|lived in a ter-|
 (d>d)d [Gc]2 [F=B] | [=Ec]3- [Ec]2 [Ec] | e>ee d2 d/c/ | (B/c/) B2 [B,F]2 [B,E] | %15
w: house, * And one in|street * be-|low. * * * * *||
w: house, * And one in|street * be-|low. * * * * *||
w: house, * And one in|street * be-|low. * * * * *||
w: house, * And one in|street * be-|low. * * * * *||
w: house, * And whi- ch|street * be-|low. * * * * *||
 (EF)d/d/ [Ac]2 [EB] | [CEA]3- [CEA]2 |] %17
w: ||
w: ||
w: ||
w: ||
w: ||
V:2
 x | E3 =E3 | D3 E x2 | F3 D2 x | x6 | x3 _C3 | D3 _C2 x | _C3 G,3 | x6 | D2 D2 x2 | C3 x3 | %11
w: |self- same|same bright|cried in||ry|seemed pure|As fall-||of them|raced|
w: |self- same|both were|curls bru-||had|ren both|As o-||of them|raced|
w: |self- same|ded and|saw through||her|a smil-|The other||of them|raced|
w: |self- same|ten- der|was left||let|had many|For the~other||ne had|raced|
w: |rich and|ho- ly|of~the sis-||them|the differ-|For in~Heav-||of them|raced|
 F3 x3 | x6 | [F=A]3 E3 | =D3 x3 | d2 G x3 | x5 |] %17
w: the||||||
w: the||||||
w: the||||||
w: the||||||
w: in||||||
V:3
 z | [A,,A,]3 [A,,A,]3 | [D,A,]3 [D,A,]2 [C,A,] | [B,,A,]3 [E,,E,]3 | [A,,E,]3- [A,,E,]2 z | %5
 (A,,_C,)[E,_C] A,3 | [D,A,]3 [_F,A,]3 | [E,A,]3 E,2 D, | [A,,_C,E,]3- [A,,C,E,]2 [A,,A,] | %9
 [B,,G,]2 [B,,G,] [=A,,^F,]2 [B,,G,] | A, E,2 A,,C,_C, | A,2 A, [E,G,]2 D, | %12
 [C,G,]3- [C,G,]2 [C,B,] | F,,=A,,C, [F,=A,]3 | [B,,A,]3 [=D,A,]2 [E,G,] | (G,A,)B, (E=D)D | %16
 [A,,A,]3- [A,,A,]2 |] %17
V:4
 x | x6 | x6 | x6 | x6 | x6 | x6 | x3 E,,3 | x6 | x6 | A,,3 A,3 | B,,3 x3 | x6 | x6 | x6 | %15
 E,3 E,2 x | x5 |] %17

